icons/linear-new-office-doc-search-preview-magnifier.svg

<svg xmlns="http://www.w3.org/2000/svg" width="32px" height="32px" viewBox="0 0 32 32" version="1.1">
    <title>linear-new-office-doc-search-preview-magnifier</title>
    <g id="linear-new-office-doc-search-preview-magnifier" stroke-width="1" fill-rule="evenodd">
        <path d="M27,2 C27.5522847,2 28,2.44771525 28,3 L28,15 C28,15.5522847 27.5522847,16 27,16 C26.4477153,16 26,15.5522847 26,15 L26,4 L6,4 L6,28 L15,28 C15.5128358,28 15.9355072,28.3860402 15.9932723,28.8833789 L16,29 C16,29.5522847 15.5522847,30 15,30 L5,30 C4.44771525,30 4,29.5522847 4,29 L4,3 C4,2.44771525 4.44771525,2 5,2 L27,2 Z M22.5,17 C25.5375661,17 28,19.4624339 28,22.5 C28,23.6572299 27.6426018,24.730985 27.0321626,25.616908 L29.7071068,28.2928932 C30.0976311,28.6834175 30.0976311,29.3165825 29.7071068,29.7071068 C29.3165825,30.0976311 28.6834175,30.0976311 28.2928932,29.7071068 L25.616908,27.0321626 C24.730985,27.6426018 23.6572299,28 22.5,28 C19.4624339,28 17,25.5375661 17,22.5 C17,19.4624339 19.4624339,17 22.5,17 Z M22.5,19 C20.5670034,19 19,20.5670034 19,22.5 C19,24.4329966 20.5670034,26 22.5,26 C24.4329966,26 26,24.4329966 26,22.5 C26,20.5670034 24.4329966,19 22.5,19 Z M15,14 C15.5522847,14 16,14.4477153 16,15 C16,15.5522847 15.5522847,16 15,16 L11,16 C10.4477153,16 10,15.5522847 10,15 C10,14.4477153 10.4477153,14 11,14 L15,14 Z M21,8 C21.5522847,8 22,8.44771525 22,9 C22,9.55228475 21.5522847,10 21,10 L11,10 C10.4477153,10 10,9.55228475 10,9 C10,8.44771525 10.4477153,8 11,8 L21,8 Z" id="&#24418;&#29366;" fill-rule="nonzero" />
    </g>
</svg>

<svg xmlns="http://www.w3.org/2000/svg" viewBox="0 0 32 32"><path fill="currentColor" d="M27 2a1 1 0 0 1 1 1v12a1 1 0 0 1-2 0V4H6v24h9a1 1 0 0 1 .993.883L16 29a1 1 0 0 1-1 1H5a1 1 0 0 1-1-1V3a1 1 0 0 1 1-1zm-4.5 15a5.5 5.5 0 0 1 4.532 8.617l2.675 2.676a1 1 0 0 1-1.414 1.414l-2.676-2.675A5.5 5.5 0 1 1 22.5 17m0 2a3.5 3.5 0 1 0 0 7 3.5 3.5 0 0 0 0-7M15 14a1 1 0 0 1 0 2h-4a1 1 0 0 1 0-2zm6-6a1 1 0 0 1 0 2H11a1 1 0 0 1 0-2z"/></svg>
